X: 24225
T: Lord Moira's Welcome To Scotland
R: strathspey
M: 4/4
K: Gmajor
(3DEF|:G2 G>A B<d d2|c>AB>G A>G (3FED|G2 G>A B<dd>g|1 e>gf>a g>ed<B:|2 e>gf<a g2 (3def||
g>ab>g a>gf<d|e>fg>e d>cB>G|g>ab>g a>g (3fed|e>gf<a g3 d|
g>ab>g a>g f2|e>f (3gfe d>cB<A|G2 G>A B<d d2|e>gf<a g2||

